assets/icons/telegram.svg

<svg width="34" height="34" viewBox="0 0 34 34" fill="none" xmlns="http://www.w3.org/2000/svg">
<path fill-rule="evenodd" clip-rule="evenodd" d="M31.7624 3.29836L15.5979 19.4628C15.6149 19.503 15.6306 19.5438 15.6451 19.5851L20.7951 32.276L31.7624 3.29836ZM14.5372 18.4022L30.7017 2.2377L1.71823 13.2072L14.4148 18.355C14.4562 18.3694 14.497 18.3851 14.5372 18.4022ZM33.9076 1.86797L22.077 33.1264C21.9735 33.3875 21.7925 33.6106 21.5584 33.7658C21.3243 33.921 21.0483 34.0007 20.7675 33.9944C20.4868 33.988 20.2147 33.8958 19.9878 33.7302C19.7675 33.5693 19.6001 33.3466 19.5068 33.0905L14.2473 20.1297C14.2413 20.1151 14.2358 20.1002 14.2308 20.0852C14.2063 20.0116 14.1649 19.9448 14.1101 19.89C14.0553 19.8351 13.9884 19.7938 13.9149 19.7693C13.8999 19.7643 13.8852 19.7588 13.8706 19.7529L0.912705 14.4992C0.655121 14.4075 0.430498 14.241 0.267813 14.0207C0.0994479 13.7927 0.00564875 13.5183 -0.000748197 13.2349C-0.00714515 12.9516 0.0741722 12.6732 0.232077 12.4378C0.389981 12.2025 0.616757 12.0216 0.881369 11.9201L0.884545 11.9189L32.1321 0.0925006C32.1326 0.0923251 32.133 0.0921498 32.1335 0.0919747C32.3811 -0.00243673 32.6508 -0.0232718 32.91 0.0319911C33.1697 0.0873584 33.4078 0.216741 33.5956 0.404499C33.7833 0.592258 33.9127 0.83037 33.9681 1.09008C34.0233 1.34936 34.0025 1.61909 33.908 1.86678C33.9079 1.86718 33.9077 1.86757 33.9076 1.86797Z" fill="white"/>
</svg>

<svg width="34" height="34" fill="none" xmlns="http://www.w3.org/2000/svg"><path fill-rule="evenodd" clip-rule="evenodd" d="M31.762 3.298L15.598 19.463a2.1 2.1 0 01.047.122l5.15 12.691L31.762 3.298zM14.537 18.402L30.702 2.238 1.718 13.208l12.697 5.147c.041.014.082.03.122.047zm19.37-16.534l-11.83 31.258a1.375 1.375 0 01-2.57-.035l-5.26-12.961a.698.698 0 01-.016-.045.5.5 0 00-.316-.316.757.757 0 01-.044-.016L.913 14.499A1.375 1.375 0 01.88 11.92l.004-.001L32.132.093l.002-.001a1.375 1.375 0 011.774 1.775v.001z" fill="#fff"/></svg>
